assets/images/ico_tel.svg

<svg width="15" height="15" viewBox="0 0 15 15" fill="none" xmlns="http://www.w3.org/2000/svg">
<path d="M14.4284 10.9866C14.1723 10.786 13.8613 10.6583 13.5869 10.5306C12.6906 10.1657 11.776 9.92855 10.9894 9.74612C10.715 9.6914 10.3309 9.58194 9.94674 9.72788C9.65406 9.83734 9.47114 10.0562 9.30651 10.2569C9.25163 10.3299 9.17846 10.4029 9.12358 10.4758C8.97725 10.6218 8.57481 10.5488 8.08092 10.2752C7.51386 9.98328 6.83704 9.45424 6.19681 8.81575C5.55658 8.17726 5.0261 7.50228 4.73342 6.93676C4.45904 6.44421 4.38587 6.04287 4.53221 5.89693C4.58708 5.8422 4.66025 5.78747 4.75171 5.7145C4.95293 5.55032 5.17244 5.36789 5.28219 5.07601C5.42853 4.69292 5.31878 4.29158 5.2639 4.03618C5.08098 3.25175 4.84318 2.33962 4.47733 1.44573C4.36757 1.15385 4.22124 0.861964 4.02002 0.606567C3.76393 0.296443 3.45296 0.0775312 3.1054 0.0228033C2.6298 -0.0684099 2.09932 0.114016 1.56885 0.570082C1.16641 0.916692 0.81886 1.33627 0.562768 1.82882C0.306675 2.32137 0.123751 2.81393 0.0505821 3.34296C-0.132341 4.58346 0.178628 5.95166 1.02008 7.53877C1.73348 8.90696 2.64809 10.1475 3.72734 11.2603V11.2785C4.82488 12.3548 6.08706 13.267 7.44069 13.9784C8.73945 14.6534 9.89186 15 10.9528 15C11.1906 15 11.4284 14.9818 11.6479 14.9453C12.1784 14.8723 12.6906 14.6899 13.1662 14.4345C13.6418 14.1791 14.0625 13.8325 14.4284 13.4311C14.8857 12.9203 15.0686 12.3913 14.9771 11.8988C14.9588 11.5521 14.7393 11.2238 14.4284 10.9866Z" fill="white"/>
</svg>

<svg width="15" height="15" fill="none" xmlns="http://www.w3.org/2000/svg"><path d="M14.428 10.987c-.256-.201-.567-.329-.841-.456-.896-.365-1.811-.602-2.598-.785-.274-.055-.658-.164-1.042-.018-.293.11-.476.328-.64.529-.055.073-.129.146-.183.219-.147.146-.55.073-1.043-.2-.567-.293-1.244-.822-1.884-1.46-.64-.639-1.17-1.314-1.464-1.88-.274-.492-.347-.893-.2-1.04.054-.054.127-.109.219-.181.2-.165.42-.347.53-.639.147-.383.037-.784-.018-1.04-.183-.784-.42-1.696-.787-2.59a3.132 3.132 0 00-.457-.84c-.256-.31-.567-.528-.915-.583C2.63-.068 2.1.114 1.57.57A4.22 4.22 0 00.563 1.83c-.256.492-.44.985-.512 1.514-.183 1.24.128 2.609.97 4.196a15.91 15.91 0 002.706 3.721v.018a15.847 15.847 0 003.714 2.7C8.739 14.653 9.89 15 10.953 15c.238 0 .475-.018.695-.055a4.529 4.529 0 001.518-.51 4.782 4.782 0 001.262-1.004c.458-.51.64-1.04.55-1.532-.02-.347-.239-.675-.55-.912z" fill="#fff"/></svg>
